X:1
T:Title
%%score ( 1 2 ) { 3 | 4 }
L:1/8
Q:1/4=97
M:4/4
K:Ab
V:1 treble nm="Grand Piano, Soprano"
V:2 treble 
V:3 bass nm="Choir Pad, Go and Tell Jesus"
V:4 bass 
V:1
 [CE][CE] [CE]2 [CE]2 [Ec]2 | [DB][DA][DF][DA] [CE]3 [CE] | E[EF][EG][EA] [EB]2 AG | %3
w: By~Theodore~Frelinghuysen~Seward * * * *|||
 [EA]2 c-[Ac] [GB]4 | [CE]2 [CE][CE] [CE]2 [Ec]2 | [DB][DA][DF][DA] [CE]3 [CE] | %6
w: |||
 [DF]2 [DF]2 E2 [EA]2 | [EG][EA][EB][EG] [EA]4 | [GB][GB] [GB]2 [GB]2 [Ge][Bd] | %9
w: |||
 [Ac][EB][EA][DF] [CE]4 | [GB][GB] [GB]2 [GB]2 [Ge][Bd] | [Ac][EB][EA][DF] [CE]4 | %12
w: |||
 [CE][CE] [CE]2 [CE]2 [CA]2 | [DF][DF] [DF]2 [DF]2 [FA]2 | [EG][EG] [EG]2 [EA]2 [CE][EA] | %15
w: |||
 [EG][EA][EB][EG] [EA]4- | [EA]4 z4 |] %17
w: ||
V:2
 x8 | x8 | z4 z2 E2 | z2 .F2 z4 | x8 | x8 | x8 | x8 | x8 | x8 | x8 | x8 | x8 | x8 | x8 | x8 | x8 |] %17
V:3
 A,A, A,2 A,2 A,2 | F,F,A,A, A,3 A, | G,A,B,[K:treble]C D2 CB, | C2 A,C E4 | A,2 A,A, A,2 A,2 | %5
 F,F,A,A, A,3 A, | A,2 A,2 A,2[K:treble] C2 | B,CDB, C4 | EE E2 E2 B,E | EDCA, A,4 | EE E2 E2 B,E | %11
 EDC[K:bass]A, A,4 | A,A, A,2 A,2 A,2 | A,A, A,2 A,2 C2 | B,B, B,2 A,2 A,A, | %15
 B,[K:treble]CDB, C4- | C4 z4 |] %17
V:4
 A,,A,, A,,2 A,,2 A,,2 | D,D,D,F, z2 z A,, | E,E,E,E, E,2 E,2 | A,2 z2 E,4 | z4 z2 A,,2 | %5
 D,D,D,F, z2 z A,, | D,2 D,2 C,2 A,,2 | E,E,E,E, A,,4 | E,E, E,2 E,2 E,E, | A,A, .A,2 z4 | %10
 E,E, E,2 E,2 E,E, | A,A, .A,2 z4 | A,,A,, A,,2 A,,2 A,,2 | D,D, D,2 D,2 D,2 | E,E,E,D, C,2 A,,C, | %15
 E,E,E,E, A,,4- | A,,4 z4 |] %17

